X:1
T: The Auld Inn
C:
R:Jig
Q:180
K:A
M:6/8
L:1/16
|:c2|A2G2A2 E4A2|F4A2 E4E2|A2G2A2 B2c2d2|c2B2A2 B2G2E2|
A2G2A2 E4A2|F4A2 E4A2|d2e2f2 e2c2A2|B6 A4:|
|:c2|c2B2c2 e4e2|f2g2a2 a4f2|e2c2A2 A2c2A2|B2G2E2 E2F2G2|
A2G2A2 E4A2|F4A2 E4A2|d2e2f2 e2c2A2|B6 A4:|
